X:1
T:Title
%%score ( 1 2 ) ( 3 4 ) { 5 | 6 }
L:1/8
Q:1/4=110
M:4/4
K:Eb
V:1 treble nm="Grand Piano, Soprano"
V:2 treble 
V:3 treble nm="Strings 1, Staff-1"
V:4 treble 
V:5 bass nm="Choir Pad, Skara Brae, 11.11.11.11"
V:6 bass 
V:1
 B3 B B2 B2 | c4 B4 | G2 FE F2 B2 | G8 | B3 B B2 B2 | c4 B4 | =A2 GF G2 A2 | B8 | %8
 [EG]3 [EG] [DG]2 [DF]2 | B4 z4 | [Ec]3 [Ec] [Ac]2 [Gc]2 | [Fd]8 | [Ee]3 [Ee] [Fd]2 [FG]2 | %13
 [Ec]2 [=EB]2 [FA]4 | [EG]2 [EA]2 [DF]3 [DF] | E8 |] %16
V:2
 x8 | x8 | x8 | x8 | x8 | x8 | x8 | x8 | x8 | E2 D2 [EB]4 | x8 | x8 | x8 | x8 | x8 | x8 |] %16
V:3
 d8 | [_Gc]4 [=GB]4 | B8 | [EGB]8 | B4 e2 z2 | [Ac]4 [GB]4 | F2- [FG]F c2- [=Ac]2 | %7
w: By~J.~Herbert~Cleworth,~1915|||||||
 B2 A2 G2 [FA]2 | z8 | z8 | z8 | z8 | z8 | z8 | z8 | z8 |] %16
w: |||||||||
V:4
 E4 G4 | x8 | [EG]4 [DA]4 | x8 | E2 F2 G2- [GB]2 | x8 | =A2 z2 G2 z2 | x8 | x8 | x8 | x8 | x8 | %12
 x8 | x8 | x8 | x8 |] %16
V:5
 G,4 B,4 | =A,4 B,4 | G,2 F,E, F,2 B,2 | B,8 | G,2 A,2 B,4 | C2 D2 E4 | E8 | D2 C2[K:bass] B,4 | %8
 B,3 B, B,2 B,2 | B,2 A,2 G,4 | A,3 A, A,2 A,2 | B,8 | B,3 B, =B,2 B,2 | C4 C4 | B,2 C2 A,3 A, | %15
 G,8 |] %16
V:6
 E,8 | E,8 | B,,8 | E,8 | E,8 | E,8 | F,8 | B,,8 | E,3 E, A,2 A,2 | G,2 F,2 E,4 | z8 | A,8 | %12
 G,3 G, G,2 G,2 | A,2 G,2 F,4 | B,,2 B,,2 B,,3 B,, | E,8 |] %16

